X: 62
T: Turkey Dance Song
C: Anon.
%%abc-version 2.0
%%abcx-abcm2ps-target-version 5.9.1 (29 Sep 2008)
%%abc-creator hum2abc beta
%%abcx-conversion-date 2020/08/10 20:56:09
%%abc-copyright Electronic Copyright 2000 David Huron
%%abc-edited-by David Huron
%%abcx-initial-encoding-date August 30, 2000
%%humdrum-veritas 1817148826
%%humdrum-veritas-data 3594909352
%%linebreak <none>
%%barnumbers 0
L: 1/8
M: 2/4
Q: 1/4=72
K: B clef=bass
B,2D B, | 
B,< G, G, z | 
B,2D B, | 
B,< G,G,2 | 
C< C B, B, | 
F, B, F, G, | 
G,< F, F, z | 
B,< B, F, F, | 
D, F, F, G, | 
G,< F, F, z | 
B,2D B, | 
B,< G, G, z | 
B,2D B, | 
B,< G,G,2 | 
C< C B, B, | 
F, B, F, G, | 
G,< F, F, z | 
D F F D/ C/ | 
D2D/ C3/ | 
D2D z | 
D F F D/ C/ | 
C B, F, G, | 
G,< F, F, z | 
B,2D B, | 
B,< G, G, z | 
B,2D B, | 
B,< G,G,2 | 
C< C B, B, | 
F, B, F, G, | 
G,< F, F, z | 
B,< B, F, F, | 
D, F, F, G, | 
G,< F, F, z |]  


